icons/svg/16x16/camera/filled.svg

<svg width="16" height="16" fill="none" xmlns="http://www.w3.org/2000/svg">
  <path fill-rule="evenodd" clip-rule="evenodd" d="M11.5 8.5a3.5 3.5 0 10-7 0 3.5 3.5 0 007 0zM16 5.505v6.875c0 .965-.687 1.788-1.636 1.967C12.83 14.636 10.415 15 8 15s-4.83-.364-6.364-.653A2.002 2.002 0 010 12.38V5.505c0-.906.605-1.696 1.48-1.932A27.607 27.607 0 014 3l.724-1.447A.998.998 0 015.618 1h4.764c.379 0 .725.214.894.553L12 3c.818.136 1.758.367 2.52.573A1.998 1.998 0 0116 5.505zM9.5 8.5c0 .827-.673 1.5-1.5 1.5s-1.5-.673-1.5-1.5S7.173 7 8 7s1.5.673 1.5 1.5z" fill="#000"/>
</svg>

<svg xmlns="http://www.w3.org/2000/svg" width="16" height="16" viewBox="0 0 16 16">
  <path fill-rule="evenodd" d="M11.5,8.5 C11.5,6.567 9.933,5 8,5 C6.067,5 4.5,6.567 4.5,8.5 C4.5,10.433 6.067,12 8,12 C9.933,12 11.5,10.433 11.5,8.5 M16,5.505 L16,12.38 C16,13.345 15.313,14.168 14.364,14.347 C12.83,14.636 10.415,15 8,15 C5.585,15 3.17,14.636 1.636,14.347 C0.687,14.168 0,13.345 0,12.38 L0,5.505 C0,4.599 0.605,3.809 1.48,3.573 C2.242,3.367 3.182,3.136 4,3 L4.724,1.553 C4.893,1.214 5.239,1 5.618,1 L8,1 L10.382,1 C10.761,1 11.107,1.214 11.276,1.553 L12,3 C12.818,3.136 13.758,3.367 14.52,3.573 C15.395,3.809 16,4.599 16,5.505 M9.5,8.5 C9.5,9.327 8.827,10 8,10 C7.173,10 6.5,9.327 6.5,8.5 C6.5,7.673 7.173,7 8,7 C8.827,7 9.5,7.673 9.5,8.5"/>
</svg>
